X: 676
T: Rao wanwan
L: 1/16
M: 2/4
K: C
c2 A2G4 [I:setbarnb 1]| 
c2> d2 e e e2 | 
d2> c2 d e d c | 
B4z4 | 
c2 c AG4 | 
c2> d2e4 | 
d2 c2 d c A2 | 
G8 |]

@@@ Tune index: 9550
